X: 23
T: No_1_The_Dust_of_the_Red_Wagon.krn
N: Derived from No_1_The_Dust_of_the_Red_Wagon.krn
%%abc-version 2.0
%%abcx-abcm2ps-target-version 5.9.1 (29 Sep 2008)
%%abc-creator hum2abc beta
%%abcx-conversion-date 2019/03/15 08:36:49
%%humdrum-veritas 2444330607
%%humdrum-veritas-data 1916847429
%%linebreak <none>
%%barnumbers 0
L: 1/8
M: 2/4
K: Bb clef=bass
[K:clef=bass][M:2/4]DD/B,/ D(B,/G,/) [I:setbarnb 2]| 
G,G,G,2 | 
(3B,G,B, G,F, | 
F,F,F,2 | 
DD/B,/ D(B,/G,/) | 
G,G,G,2 | 
(3B,G,B, G,F, | 
F,F,F,2 | 
F,B, G,3/G,/ | 
B,G, B,G, | 
G,G,G,2 | 
G,B, G,3/G,/ | 
B,G, B,G, | 
G,G,G,2 :|]  



